dist/static/img/context/res-5.svg

<svg width="80" height="80" viewBox="0 0 80 80" fill="none" xmlns="http://www.w3.org/2000/svg">
<rect width="80" height="80" rx="40" fill="#1F5AFF"/>
<g clip-path="url(#clip0_1115_3992)">
<path d="M61.0231 40.1631L62.6554 38.5308C62.93 38.2561 62.93 37.811 62.6554 37.5364L60.6465 35.5274C60.3719 35.2529 59.9267 35.2529 59.6521 35.5274L58.0198 37.1598C56.0658 35.6939 53.7414 34.697 51.2148 34.3351V32.7493H52.8793C53.2676 32.7493 53.5824 32.4346 53.5824 32.0462V29.2051C53.5824 28.8167 53.2676 28.502 52.8793 28.502H45.3031C44.9147 28.502 44.5999 28.8167 44.5999 29.2051V32.0462C44.5999 32.4346 44.9147 32.7493 45.3031 32.7493H46.9675V34.3323C43.6363 34.801 40.5918 36.3713 38.2366 38.872C37.9703 39.1548 37.9836 39.5998 38.2663 39.866C38.5489 40.1324 38.994 40.119 39.2602 39.8363C41.8396 37.0977 45.3309 35.5895 49.0911 35.5895C56.5364 35.5895 62.5934 41.6466 62.5934 49.0918C62.5934 56.537 56.5363 62.594 49.0911 62.594C41.646 62.594 35.5889 56.537 35.5889 49.0918C35.5889 46.7158 36.2144 44.3796 37.3978 42.3361C37.5924 42 37.4777 41.5698 37.1416 41.3752C36.8056 41.1805 36.3754 41.2953 36.1808 41.6313C34.8736 43.8888 34.1826 46.4686 34.1826 49.0917C34.1826 57.3124 40.8706 64.0003 49.0911 64.0003C57.3117 64.0003 63.9996 57.3124 63.9996 49.0919C63.9996 45.7457 62.8914 42.6537 61.0231 40.1631ZM60.1493 37.019L61.1639 38.0335L60.1232 39.0741C59.8014 38.72 59.4628 38.3814 59.1087 38.0596L60.1493 37.019ZM46.0061 29.9083H52.1761V31.3431H46.0061V29.9083ZM48.3736 34.2005V32.7493H49.8085V34.2007C49.5707 34.1894 49.3316 34.1831 49.0911 34.1831C48.8508 34.1832 48.6118 34.1894 48.3736 34.2005Z" fill="white"/>
<path d="M49.0914 51.2156C50.2624 51.2156 51.215 50.2629 51.215 49.0919C51.215 48.1674 50.6208 47.3793 49.7945 47.0884V41.9893C49.7945 41.6009 49.4797 41.2861 49.0914 41.2861C48.7031 41.2861 48.3883 41.6009 48.3883 41.9893V47.0884C47.5619 47.3793 46.9678 48.1674 46.9678 49.0919C46.9677 50.2629 47.9204 51.2156 49.0914 51.2156ZM49.0914 48.3745C49.487 48.3745 49.8088 48.6963 49.8088 49.0919C49.8088 49.4874 49.4869 49.8092 49.0914 49.8092C48.6959 49.8092 48.374 49.4874 48.374 49.0919C48.374 48.6963 48.6958 48.3745 49.0914 48.3745Z" fill="white"/>
<path d="M49.0919 61.1584C55.7459 61.1584 61.1594 55.745 61.1594 49.0909C61.1594 42.4368 55.7459 37.0234 49.0919 37.0234C42.4379 37.0234 37.0244 42.4368 37.0244 49.0909C37.0244 55.745 42.4379 61.1584 49.0919 61.1584ZM49.0919 38.4298C54.9705 38.4298 59.7532 43.2124 59.7532 49.091C59.7532 54.9696 54.9705 59.7523 49.0919 59.7523C43.2133 59.7523 38.4307 54.9696 38.4307 49.091C38.4307 43.2124 43.2133 38.4298 49.0919 38.4298Z" fill="white"/>
<path d="M18.7512 35.7694H23.8422L27.5309 38.6896C27.6575 38.7899 27.8118 38.8414 27.9674 38.8414C28.0714 38.8414 28.1762 38.8184 28.2735 38.7712C28.5162 38.6538 28.6704 38.4079 28.6704 38.1383V35.7693H37.6897C39.2067 35.7693 40.4409 34.5352 40.4409 33.0182V24.3404C40.4409 23.952 40.1261 23.6373 39.7378 23.6373C39.3495 23.6373 39.0347 23.952 39.0347 24.3404V33.0183C39.0347 33.7598 38.4313 34.3632 37.6897 34.3632H27.9674C27.5791 34.3632 27.2642 34.6779 27.2642 35.0663V36.685L24.5233 34.5151C24.3991 34.4166 24.2453 34.3632 24.0869 34.3632H18.7512C18.0096 34.3632 17.4062 33.7598 17.4062 33.0183V18.7512C17.4062 18.0096 18.0096 17.4063 18.7512 17.4063H37.6898C38.4314 17.4063 39.0347 18.0096 39.0347 18.7512V21.0558C39.0347 21.4443 39.3496 21.759 39.7379 21.759C40.1262 21.759 40.441 21.4443 40.441 21.0558V18.7512C40.4409 17.2341 39.2068 16 37.6897 16H18.7512C17.2342 16 16 17.2341 16 18.7512V33.0183C16 34.5353 17.2342 35.7694 18.7512 35.7694Z" fill="white"/>
<path d="M25.6069 26.3114C25.3323 26.0369 24.887 26.0369 24.6125 26.3114L21.4686 29.4553C21.194 29.73 21.194 30.1751 21.4686 30.4497L22.7948 31.7759C23.5789 32.5598 24.6083 32.9518 25.6382 32.9517C26.6677 32.9516 27.6978 32.5596 28.4816 31.7759L34.0007 26.2568C34.7601 25.4973 35.1785 24.4875 35.1785 23.4135C35.1785 22.3394 34.7602 21.3295 34.0007 20.5701L32.6743 19.244C32.5425 19.1121 32.3636 19.0381 32.1771 19.0381C31.9907 19.0381 31.8118 19.1121 31.68 19.244L28.5361 22.3879C28.4042 22.5198 28.3301 22.6986 28.3301 22.8851C28.3301 23.0717 28.4042 23.2504 28.5361 23.3824L29.6812 24.5274L26.7519 27.4566L25.6069 26.3114ZM30.7035 25.4938C30.9617 25.2357 31.1039 24.8925 31.1039 24.5273C31.1039 24.1622 30.9617 23.819 30.7036 23.5609L30.0276 22.885L32.1771 20.7354L33.0062 21.5646C33.5 22.0584 33.772 22.715 33.772 23.4136C33.772 24.112 33.5 24.7686 33.0062 25.2625L27.4871 30.7816C26.4676 31.8011 24.8087 31.8013 23.789 30.7816L22.96 29.9526L25.1096 27.803L25.7855 28.4789C26.0435 28.737 26.3869 28.8792 26.7519 28.8792C27.1171 28.8792 27.4603 28.737 27.7184 28.4789L30.7035 25.4938Z" fill="white"/>
<path d="M16.7031 49.7949H29.0145C29.4028 49.7949 29.7176 49.4802 29.7176 49.0918C29.7176 48.7034 29.4028 48.3887 29.0145 48.3887H16.7031C16.3148 48.3887 16 48.7034 16 49.0918C16 49.4802 16.3148 49.7949 16.7031 49.7949Z" fill="white"/>
<path d="M16.7031 46.0068H18.976C19.3643 46.0068 19.6791 45.6921 19.6791 45.3037C19.6791 44.9153 19.3643 44.6006 18.976 44.6006H16.7031C16.3148 44.6006 16 44.9153 16 45.3037C16 45.6921 16.3148 46.0068 16.7031 46.0068Z" fill="white"/>
<path d="M30.9087 44.6006H21.9072C21.5189 44.6006 21.2041 44.9153 21.2041 45.3037C21.2041 45.6921 21.5189 46.0068 21.9072 46.0068H30.9087C31.297 46.0068 31.6119 45.6921 31.6119 45.3037C31.6119 44.9153 31.2971 44.6006 30.9087 44.6006Z" fill="white"/>
<path d="M27.825 41.5156C27.825 41.1272 27.5101 40.8125 27.1218 40.8125H18.5967C18.2084 40.8125 17.8936 41.1272 17.8936 41.5156C17.8936 41.904 18.2084 42.2188 18.5967 42.2188H27.1218C27.5101 42.2188 27.825 41.904 27.825 41.5156Z" fill="white"/>
<path d="M32.803 40.8125H29.9619C29.5736 40.8125 29.2588 41.1272 29.2588 41.5156C29.2588 41.904 29.5736 42.2188 29.9619 42.2188H32.803C33.1913 42.2188 33.5061 41.904 33.5061 41.5156C33.5061 41.1272 33.1913 40.8125 32.803 40.8125Z" fill="white"/>
<path d="M19.6791 52.8799C19.6791 52.4915 19.3643 52.1768 18.976 52.1768H16.7031C16.3148 52.1768 16 52.4915 16 52.8799C16 53.2683 16.3148 53.583 16.7031 53.583H18.976C19.3643 53.583 19.6791 53.2682 19.6791 52.8799Z" fill="white"/>
<path d="M30.9087 52.1768H21.9072C21.5189 52.1768 21.2041 52.4915 21.2041 52.8799C21.2041 53.2683 21.5189 53.583 21.9072 53.583H30.9087C31.297 53.583 31.6119 53.2683 31.6119 52.8799C31.6119 52.4915 31.2971 52.1768 30.9087 52.1768Z" fill="white"/>
<path d="M27.1218 55.9648H18.5967C18.2084 55.9648 17.8936 56.2796 17.8936 56.668C17.8936 57.0564 18.2084 57.3711 18.5967 57.3711H27.1218C27.5101 57.3711 27.825 57.0564 27.825 56.668C27.825 56.2796 27.5101 55.9648 27.1218 55.9648Z" fill="white"/>
<path d="M32.803 55.9648H29.9619C29.5736 55.9648 29.2588 56.2796 29.2588 56.668C29.2588 57.0564 29.5736 57.3711 29.9619 57.3711H32.803C33.1913 57.3711 33.5061 57.0564 33.5061 56.668C33.5061 56.2796 33.1913 55.9648 32.803 55.9648Z" fill="white"/>
</g>
<defs>
<clipPath id="clip0_1115_3992">
<rect width="48" height="48" fill="white" transform="translate(16 16)"/>
</clipPath>
</defs>
</svg>

<svg width="80" height="80" viewBox="0 0 80 80" fill="none" xmlns="http://www.w3.org/2000/svg"><rect width="80" height="80" rx="40" fill="#1F5AFF"/><g clip-path="url(#clip0_1115_3992)" fill="#fff"><path d="M61.023 40.163l1.632-1.632a.703.703 0 000-.995l-2.008-2.009a.703.703 0 00-.995 0L58.02 37.16a14.834 14.834 0 00-6.805-2.825V32.75h1.664a.703.703 0 00.703-.703v-2.84a.703.703 0 00-.703-.704h-7.576a.703.703 0 00-.703.703v2.841c0 .389.315.703.703.703h1.665v1.583c-3.332.469-6.376 2.04-8.731 4.54a.703.703 0 001.023.964 13.377 13.377 0 019.831-4.246c7.445 0 13.502 6.057 13.502 13.502s-6.057 13.502-13.502 13.502S35.59 56.537 35.59 49.092c0-2.376.625-4.712 1.809-6.756a.703.703 0 00-1.217-.705 14.904 14.904 0 00-1.998 7.46c0 8.221 6.688 14.91 14.908 14.91C57.311 64 64 57.311 64 49.09c0-3.345-1.109-6.437-2.977-8.928zm-.874-3.144l1.015 1.014-1.04 1.041a15.03 15.03 0 00-1.015-1.014l1.04-1.041zm-14.143-7.11h6.17v1.434h-6.17v-1.435zm2.368 4.291v-1.45h1.434v1.45a15.109 15.109 0 00-1.434 0z"/><path d="M49.091 51.216a2.126 2.126 0 002.124-2.124c0-.925-.594-1.713-1.42-2.004V41.99a.703.703 0 10-1.407 0v5.1a2.127 2.127 0 00-1.42 2.003c0 1.17.952 2.124 2.123 2.124zm0-2.842a.718.718 0 11-.001 1.437.718.718 0 01.001-1.437z"/><path d="M49.092 61.158c6.654 0 12.067-5.413 12.067-12.067s-5.413-12.068-12.067-12.068-12.068 5.414-12.068 12.068 5.414 12.067 12.068 12.067zm0-22.728c5.879 0 10.661 4.782 10.661 10.661s-4.782 10.661-10.661 10.661S38.43 54.97 38.43 49.091 43.213 38.43 49.09 38.43zm-30.341-2.66h5.091l3.689 2.92a.702.702 0 001.14-.552V35.77h9.019a2.754 2.754 0 002.75-2.75v-8.68a.703.703 0 10-1.405 0v8.678c0 .742-.604 1.345-1.345 1.345h-9.723a.703.703 0 00-.703.703v1.619l-2.74-2.17a.702.702 0 00-.437-.152H18.75a1.347 1.347 0 01-1.345-1.345V18.751c0-.741.604-1.345 1.345-1.345h18.94c.741 0 1.345.604 1.345 1.345v2.305a.703.703 0 101.406 0V18.75A2.754 2.754 0 0037.69 16H18.75A2.754 2.754 0 0016 18.751v14.267a2.754 2.754 0 002.751 2.751z"/><path d="M25.607 26.311a.703.703 0 00-.994 0l-3.144 3.144a.703.703 0 000 .995l1.326 1.326a4.008 4.008 0 002.843 1.176 4.01 4.01 0 002.844-1.176L34 26.256a3.995 3.995 0 001.178-2.843A3.995 3.995 0 0034 20.57l-1.327-1.326a.703.703 0 00-.994 0l-3.144 3.144a.703.703 0 000 .994l1.145 1.145-2.93 2.93-1.144-1.146zm5.096-.817c.259-.258.4-.602.4-.967s-.141-.708-.4-.966l-.675-.676 2.15-2.15.828.83c.494.493.766 1.15.766 1.849 0 .698-.272 1.355-.766 1.848l-5.519 5.52a2.618 2.618 0 01-3.698 0l-.829-.83 2.15-2.149.675.676c.259.258.602.4.967.4s.708-.142.966-.4l2.985-2.985zm-14 24.301h12.312a.703.703 0 100-1.406H16.703a.703.703 0 100 1.406zm0-3.788h2.273a.703.703 0 100-1.406h-2.273a.703.703 0 100 1.406zM30.909 44.6h-9.002a.703.703 0 100 1.407h9.002a.703.703 0 100-1.406zm-3.084-3.084a.703.703 0 00-.703-.703h-8.525a.703.703 0 100 1.406h8.525a.703.703 0 00.703-.703zm4.978-.703h-2.841a.703.703 0 100 1.406h2.841a.703.703 0 000-1.407zM19.68 52.88a.703.703 0 00-.704-.703h-2.273a.703.703 0 100 1.406h2.273a.703.703 0 00.703-.703zm11.229-.703h-9.002a.703.703 0 100 1.406h9.002a.703.703 0 100-1.406zm-3.787 3.788h-8.525a.703.703 0 000 1.406h8.525a.703.703 0 100-1.406zm5.681 0h-2.841a.703.703 0 000 1.406h2.841a.703.703 0 100-1.406z"/></g><defs><clipPath id="clip0_1115_3992"><path fill="#fff" transform="translate(16 16)" d="M0 0h48v48H0z"/></clipPath></defs></svg>
